X: 633
T: Xiaoguafu shangfen
%%abc-version 2.0
%%abcx-abcm2ps-target-version 5.9.1 (29 Sep 2008)
%%abc-creator hum2abc beta
%%abcx-conversion-date 2013/10/02 07:52:30
%%abc-edited-by Helmut Schaffrath
%%humdrum-veritas 296961751
%%humdrum-veritas-data 257434984
%%continueall 1
%%barnumbers 0
L: 1/16
M: 2/4
K: F
c2 c B G2 G B [I:setbarnb 1]| 
c2 c BG4 | 
c2 c2 f2 d c | 
B8 | 
G2 G Bc4 | 
d2 f dc4 | 
G2 c2 B2 G2 | 
F8 |]  



